Newaita-dark/.DP/22/audio-volume-muted.svg

<?xml version="1.0" encoding="UTF-8"?>
<svg xmlns="http://www.w3.org/2000/svg" xmlns:xlink="http://www.w3.org/1999/xlink" width="22pt" height="22pt" viewBox="0 0 22 22" version="1.1">
<defs>
<filter id="alpha" filterUnits="objectBoundingBox" x="0%" y="0%" width="100%" height="100%">
  <feColorMatrix type="matrix" in="SourceGraphic" values="0 0 0 0 1 0 0 0 0 1 0 0 0 0 1 0 0 0 1 0"/>
</filter>
<mask id="mask0">
  <g filter="url(#alpha)">
<rect x="0" y="0" width="22" height="22" style="fill:rgb(0%,0%,0%);fill-opacity:0.988235;stroke:none;"/>
  </g>
</mask>
<clipPath id="clip1">
  <rect x="0" y="0" width="22" height="22"/>
</clipPath>
<g id="surface5" clip-path="url(#clip1)">
<path style=" stroke:none;fill-rule:nonzero;fill:rgb(74.117649%,74.117649%,74.117649%);fill-opacity:1;" d="M 2.730469 6.539062 C 1.722656 6.539062 0.910156 7.351562 0.910156 8.359375 L 0.910156 13.816406 C 0.910156 14.824219 1.722656 15.636719 2.730469 15.636719 Z M 2.730469 6.539062 "/>
</g>
<mask id="mask1">
  <g filter="url(#alpha)">
<rect x="0" y="0" width="22" height="22" style="fill:rgb(0%,0%,0%);fill-opacity:0.988235;stroke:none;"/>
  </g>
</mask>
<clipPath id="clip2">
  <rect x="0" y="0" width="22" height="22"/>
</clipPath>
<g id="surface8" clip-path="url(#clip2)">
<path style=" stroke:none;fill-rule:nonzero;fill:rgb(25.882354%,64.705884%,96.078432%);fill-opacity:1;" d="M 10.003906 1.992188 L 10.003906 20.183594 C 11.011719 20.183594 11.824219 19.371094 11.824219 18.363281 L 11.824219 3.808594 C 11.824219 2.800781 11.011719 1.992188 10.003906 1.992188 Z M 10.003906 1.992188 "/>
</g>
<mask id="mask2">
  <g filter="url(#alpha)">
<rect x="0" y="0" width="22" height="22" style="fill:rgb(0%,0%,0%);fill-opacity:0.988235;stroke:none;"/>
  </g>
</mask>
<clipPath id="clip3">
  <rect x="0" y="0" width="22" height="22"/>
</clipPath>
<g id="surface12" clip-path="url(#clip3)">
<path style=" stroke:none;fill-rule:nonzero;fill:rgb(93.725491%,32.549021%,31.37255%);fill-opacity:0.976471;" d="M 14.066406 7.871094 C 13.710938 8.226562 13.710938 8.800781 14.066406 9.15625 L 15.996094 11.085938 L 14.066406 13.015625 C 13.710938 13.371094 13.710938 13.945312 14.066406 14.304688 C 14.421875 14.660156 14.996094 14.660156 15.351562 14.304688 L 17.28125 12.375 L 19.210938 14.304688 C 19.566406 14.660156 20.140625 14.660156 20.5 14.304688 C 20.855469 13.945312 20.855469 13.371094 20.5 13.015625 L 18.570312 11.085938 L 20.5 9.15625 C 20.855469 8.800781 20.855469 8.226562 20.5 7.871094 C 20.140625 7.515625 19.566406 7.515625 19.210938 7.871094 L 17.28125 9.800781 L 15.351562 7.871094 C 14.996094 7.515625 14.421875 7.515625 14.066406 7.871094 Z M 14.066406 7.871094 "/>
</g>
</defs>
<g id="surface1">
<use xlink:href="#surface5" mask="url(#mask0)"/>
<path style=" stroke:none;fill-rule:evenodd;fill:rgb(74.117649%,74.117649%,74.117649%);fill-opacity:1;" d="M 9.09375 1.992188 C 9.085938 1.992188 9.078125 1.992188 9.070312 1.992188 C 8.871094 1.996094 8.683594 2.066406 8.527344 2.191406 L 3.980469 5.828125 C 3.765625 6 3.636719 6.261719 3.636719 6.539062 L 3.636719 15.636719 C 3.636719 15.910156 3.765625 16.171875 3.980469 16.34375 L 8.527344 19.984375 C 8.703125 20.125 8.902344 20.183594 9.097656 20.183594 L 9.097656 1.992188 C 9.09375 1.992188 9.09375 1.992188 9.09375 1.992188 Z M 9.09375 1.992188 "/>
<use xlink:href="#surface8" mask="url(#mask1)"/>
<use xlink:href="#surface12" mask="url(#mask2)"/>
</g>
</svg>

<svg xmlns="http://www.w3.org/2000/svg" xmlns:xlink="http://www.w3.org/1999/xlink" width="22pt" height="22pt" viewBox="0 0 22 22"><defs><filter id="a" filterUnits="objectBoundingBox" x="0%" y="0%" width="100%" height="100%"><feColorMatrix in="SourceGraphic" values="0 0 0 0 1 0 0 0 0 1 0 0 0 0 1 0 0 0 1 0"/></filter><mask id="f"><path fill-opacity=".988" d="M0 0h22v22H0z" filter="url(#a)"/></mask><clipPath id="b"><path d="M0 0h22v22H0z"/></clipPath><g id="e" clip-path="url(#b)"><path d="M2.73 6.54c-1.007 0-1.82.812-1.82 1.82v5.456c0 1.008.813 1.82 1.82 1.82zm0 0" fill="#bdbdbd"/></g><mask id="h"><path fill-opacity=".988" d="M0 0h22v22H0z" filter="url(#a)"/></mask><clipPath id="c"><path d="M0 0h22v22H0z"/></clipPath><g id="g" clip-path="url(#c)"><path d="M10.004 1.992v18.192c1.008 0 1.82-.813 1.82-1.82V3.808a1.814 1.814 0 0 0-1.82-1.817zm0 0" fill="#42a5f5"/></g><mask id="j"><path fill-opacity=".988" d="M0 0h22v22H0z" filter="url(#a)"/></mask><clipPath id="d"><path d="M0 0h22v22H0z"/></clipPath><g id="i" clip-path="url(#d)"><path d="M14.066 7.871a.908.908 0 0 0 0 1.285l1.93 1.93-1.93 1.93a.912.912 0 0 0 0 1.289.908.908 0 0 0 1.286 0l1.93-1.93 1.929 1.93a.912.912 0 0 0 1.289-1.29l-1.93-1.93 1.93-1.929a.908.908 0 0 0 0-1.285.912.912 0 0 0-1.29 0l-1.929 1.93-1.93-1.93a.908.908 0 0 0-1.285 0zm0 0" fill="#ef5350" fill-opacity=".976"/></g></defs><use xlink:href="#e" mask="url(#f)"/><path d="M9.094 1.992H9.07a.892.892 0 0 0-.543.2L3.98 5.827a.913.913 0 0 0-.343.711v9.098c0 .273.129.535.343.707l4.547 3.64c.176.141.375.2.57.2V1.992h-.003zm0 0" fill-rule="evenodd" fill="#bdbdbd"/><use xlink:href="#g" mask="url(#h)"/><use xlink:href="#i" mask="url(#j)"/></svg>
